X:110
T:Patrick Day in the Morning. JaW.110
T:Barbary Belles. JaW.110
T:St. Patrick’s Day,aka. JaW.110
M:6/8
L:1/8
Q:3/8=120
S:James Winder Ms, Lancashire, 1835-41
R:.Jig
O:England
A:Wyresdale,Lancashire
Z:vmp.Chris Partington, Aug 2004
K:C
“_No Key Given”GAG GAB|ded dBG|BAB BGE|EFE E2D|!
GAG GAB|ded dBG|BAB BGE|E3G3:|!
|def g2e|f2d e2c|def g2e|f2d e3|!
def g2e| efg def|g2ef2d|e6|!
dBG GAB|ded dBG|BAB BGE|EFE E2D|!
GAG GAB|ded dBG|BAB BGE|E3G3|]

